svg_80x80/azure-functions.svg

<svg viewBox="0 0 80 80" xmlns="http://www.w3.org/2000/svg">
<rect width="100%" height="100%" fill="white"/>
<path d="M73.5721 41.1693C74.1934 40.5399 74.0899 39.351 73.5721 38.6866L70.2925 35.3648L55.621 20.9584C54.9996 20.329 54.033 20.329 53.2735 20.9584C52.6522 21.5878 52.4105 22.7767 53.2735 23.441L68.67 38.7216C69.2914 39.351 69.2914 40.5399 68.67 41.2043L52.9629 57.0093C52.3415 57.6387 52.3415 58.8276 52.9629 59.492C53.5842 60.1214 54.758 60.0165 55.3103 59.492L69.8783 44.8758C69.8783 44.8758 69.8783 44.8758 69.9818 44.7709L73.5721 41.1693Z" fill="#3999C6"/>
<path d="M6.42808 41.1693C5.8067 40.5399 5.91026 39.351 6.42808 38.6866L9.7076 35.3648L24.3791 20.9584C25.0005 20.329 25.9671 20.329 26.7266 20.9584C27.348 21.5878 27.5896 22.7767 26.7266 23.441L11.6408 38.7216C11.0194 39.351 11.0194 40.5399 11.6408 41.2043L27.0373 57.0093C27.6587 57.6387 27.6587 58.8276 27.0373 59.492C26.4159 60.1214 25.2422 60.0165 24.6898 59.492L9.81116 45.0856C9.81116 45.0856 9.81116 45.0856 9.7076 44.9807L6.42808 41.1693Z" fill="#3999C6"/>
<path d="M27.6588 72.5L57.0018 30.4347H42.7446L56.5531 9H35.8403L24.6899 40.8549L38.2913 40.9598L27.6588 72.5Z" fill="#FCD116"/>
<path opacity="0.3" d="M47.8536 35.5749L27.6587 72.5L57.0018 30.4347H42.7445L56.553 9H45.7133L34.2523 35.47L47.8536 35.5749Z" fill="#FF8C00"/>
</svg>

<svg xmlns="http://www.w3.org/2000/svg" viewBox="0 0 80 80">
  <rect width="100%" height="100%" fill="#fff"/>
  <path fill="#3999C6" d="M73.6 41.2c.6-.7.5-1.8 0-2.5l-3.3-3.3L55.6 21c-.6-.7-1.6-.7-2.3 0-.6.6-.9 1.8 0 2.4l15.4 15.3c.6.7.6 1.8 0 2.5L53 57c-.7.6-.7 1.8 0 2.5.6.6 1.8.5 2.3 0L70 44.9v-.1l3.7-3.6ZM6.4 41.2c-.6-.7-.5-1.8 0-2.5l3.3-3.3L24.4 21c.6-.7 1.6-.7 2.3 0 .6.6.9 1.8 0 2.4l-15 15.3c-.7.7-.7 1.8 0 2.5L27 57c.7.6.7 1.8 0 2.5-.6.6-1.8.5-2.3 0L9.8 45V45l-3.4-3.8Z"/>
  <path fill="#FCD116" d="m27.7 72.5 29.3-42H42.7L56.6 9H35.8L24.7 40.9h13.6L27.7 72.6Z"/>
  <path fill="#FF8C00" d="M47.9 35.6 27.7 72.5l29.3-42H42.7L56.6 9H45.7L34.3 35.5h13.6Z" opacity=".3"/>
</svg>
